X:1
T:Williams, LM
T:Williams, LM
T:George Kingsley, 1853
T:Public Domain Courtesy of the Cyber Hymnal™
C:George Kingsley, 1853
Z:Public Domain
Z:Courtesy of the Cyber Hymnal™
%%score ( 1 2 ) ( 3 4 )
L:1/8
Q:1/4=115
M:6/4
K:D
V:1 treble 
V:2 treble 
V:3 bass 
V:4 bass 
V:1
 [FA]2 [FA]2 [EG]2 | [DF]6 [DF]2 [DF]2 [CE]2 | D6 [DF]2 [DG]2 [DA]2 | [DB]2 [DB]2 [DA]4 [DF]4 | %4
 [CE]6 [CA]2 [DA]2 [EG]2 | [DF]6 [Dd]2 [Dd]2 [Dc]2 | [DB]6 D2 [CE]2 [DF]2 | %7
 [DG]2 [DE]2 [DE]4 [CG]4 | [DF]6 |] %9
V:2
 x6 | x12 | D6 x6 | x12 | x12 | x12 | x6 D2 x4 | x12 | x6 |] %9
V:3
 [D,A,]2 [D,A,]2 [D,A,]2 | [D,A,]6 [F,A,]2 A,2 [G,A,]2 | [G,B,]6 [F,B,]2 [G,B,]2 [F,D]2 | %3
 [G,D]2 [G,D]2 [F,A,]4 [D,A,]4 | [A,,A,]6 [A,,A,]2 [B,,A,]2 [C,A,]2 | %5
 [D,A,]6 [D,F,]2 [E,G,]2 [G,B,]2 | [G,B,]6 [F,A,]2 [E,A,]2 [D,A,]2 | %7
 [G,,B,]2 [G,,G,]2 [A,,G,]4 (E,2 A,2) | [D,A,]6 |] %9
V:4
 x6 | x8 A,2 x2 | x12 | x12 | x12 | x12 | x12 | x8 A,,4 | x6 |] %9

